images/about/about-netflix.svg

<svg height="150" viewBox="0 0 250 150" width="250" xmlns="http://www.w3.org/2000/svg"><path d="m34.3757324 63.2089844c-3.7607422.6604004-7.5876465.8583984-11.5463867 1.3857422l-12.074707-35.3652344v36.8830566c-3.76074222.395752-7.19165042.923584-10.7546387 1.451416v-67.5639648h10.0292969l13.7236328 38.3352051v-38.3352051h10.6228027zm20.7839356-38.4663086c4.0910644 0 10.3591308-.1979981 14.119873-.1979981v10.5566407c-4.6848144 0-10.1608887 0-14.119873.197998v15.7036133c6.2023925-.395752 12.404541-.9240723 18.6723632-1.1220703v10.1604004l-29.2294921 2.3098144v-62.3510742h29.2294921v10.5568848h-18.6723632zm57.930664-14.1855469h-10.952637v48.5615234c-3.562988 0-7.1259763 0-10.5563962.1315918v-48.6931152h-10.9526367v-10.5571289h32.4621579zm17.154785 13.4599609h14.449951v10.5566407h-14.449951v23.9511718h-10.359619v-58.5249023h29.494141v10.5568848h-19.134522zm36.289307 25.2702637c6.004394.1315918 12.074219.5942383 17.946777.923584v10.4250488c-9.435058-.5942383-18.870361-1.1872558-28.503418-1.3857422v-59.2502441h10.556641zm26.854004 12.0744629c3.36499.1982422 6.927978.3962402 10.358886.7915039v-62.1533203h-10.358886zm56.611572-61.3618164-13.394287 32.1325684 13.394287 35.4313964c-3.959229-.527832-7.917969-1.2536621-11.876953-1.9135742l-7.587402-19.5297851-7.718995 17.9467773c-3.827636-.6604004-7.522461-.8583984-11.348632-1.3862305l13.591796-30.9448242-12.272705-31.7363281h11.348145l6.927978 17.7487793 7.390137-17.7487793z" fill="#e50914" transform="translate(0 41)"/></svg>

<?xml version="1.0" encoding="UTF-8"?>
<svg width="250px" height="150px" viewBox="0 0 250 150" version="1.1" xmlns="http://www.w3.org/2000/svg" xmlns:xlink="http://www.w3.org/1999/xlink">
    <title>about-netflix</title>
    <g id="about-netflix" stroke="none" stroke-width="1" fill="none" fill-rule="evenodd">
        <g id="Netflix_2015_logo" transform="translate(0.000000, 41.000000)" fill="#E50914" fill-rule="nonzero">
            <path d="M34.3757324,63.2089844 C30.6149902,63.8693848 26.7880859,64.0673828 22.8293457,64.5947266 L10.7546387,29.2294922 L10.7546387,66.1125488 C6.99389648,66.5083008 3.56298828,67.0361328 0,67.5639648 L0,0 L10.0292969,0 L23.7529297,38.3352051 L23.7529297,0 L34.3757324,0 L34.3757324,63.2089844 Z M55.159668,24.7426758 C59.2507324,24.7426758 65.5187988,24.5446777 69.279541,24.5446777 L69.279541,35.1013184 C64.5947266,35.1013184 59.1186523,35.1013184 55.159668,35.2993164 L55.159668,51.0029297 C61.3620605,50.6071777 67.564209,50.0788574 73.8320312,49.8808594 L73.8320312,60.0412598 L44.6025391,62.3510742 L44.6025391,2.84217094e-14 L73.8320312,2.84217094e-14 L73.8320312,10.5568848 L55.159668,10.5568848 L55.159668,24.7426758 Z M113.090332,10.5571289 L102.137695,10.5571289 L102.137695,59.1186523 C98.574707,59.1186523 95.0117187,59.1186523 91.5812988,59.2502441 L91.5812988,10.5571289 L80.6286621,10.5571289 L80.6286621,-3.55271368e-14 L113.09082,-3.55271368e-14 L113.090332,10.5571289 L113.090332,10.5571289 Z M130.245117,24.0170898 L144.695068,24.0170898 L144.695068,34.5737305 L130.245117,34.5737305 L130.245117,58.5249023 L119.885498,58.5249023 L119.885498,2.84217094e-14 L149.379639,2.84217094e-14 L149.379639,10.5568848 L130.245117,10.5568848 L130.245117,24.0170898 Z M166.534424,49.2873535 C172.538818,49.4189453 178.608643,49.8815918 184.481201,50.2109375 L184.481201,60.6359863 C175.046143,60.041748 165.61084,59.4487305 155.977783,59.2502441 L155.977783,0 L166.534424,0 L166.534424,49.2873535 Z M193.388428,61.3618164 C196.753418,61.5600586 200.316406,61.7580566 203.747314,62.1533203 L203.747314,-2.84217094e-14 L193.388428,-2.84217094e-14 L193.388428,61.3618164 Z M250,0 L236.605713,32.1325684 L250,67.5639648 C246.040771,67.0361328 242.082031,66.3103027 238.123047,65.6503906 L230.535645,46.1206055 L222.81665,64.0673828 C218.989014,63.4069824 215.294189,63.2089844 211.468018,62.6811523 L225.059814,31.7363281 L212.787109,0 L224.135254,0 L231.063232,17.7487793 L238.453369,0 L250,0 Z" id="Shape"></path>
        </g>
    </g>
</svg>
